/*  6 Jul 2023 12:50

*/
//:This is a header
"test1".postln;
//: this is another header
"test2".postln;
//:
"test3".postln;
//:
"test1".postln;
//:
"test2".postln;
//:
"test3".postln;
//:
"test1".postln;
//:
"test2".postln;
//:
"test3".postln;
//:
"test1".postln;
//:
"test2".postln;
//:
"test3".postln;
//:
"test1".postln;
//:
"test2".postln;
//:
"test3".postln;
//:
"test1".postln;
//:
"test2".postln;
//:
"test3".postln;
//: