/*  2 Dec 2022 17:41

*/
//:
\test >>> {
	"received test - version 1".postln;
};
//:
\test >>> {
	"received test - version 2 corrected".postln;
};
//:
\test >>>.breakfast {
	"received test - version breakfast".postln;
};
//:
\test.sim;