compiling class library...
	Found 855 primitives.
	Compiling directory '/Applications/SuperCollider/SuperCollider.app/Contents/Resources/SCClassLibrary'
	Compiling directory '/Users/iani/Library/Application Support/SuperCollider/Extensions'
	numentries = 1509567 / 22593636 = 0.067
	6297 method selectors, 3588 classes
	method table size 24170344 bytes, big table size 180749088
	Number of Symbols 16086
	Byte Code Size 468834
	compiled 700 files in 1.04 seconds

Info: 5 methods are currently overwritten by extensions. To see which, execute:
MethodOverride.printAll

compile done
localhost : setting clientID to 0.
internal : setting clientID to 0.
Emacs: Initializing lisp interface.
Class tree inited in 0.01 seconds
Stopped sharing code with OSCGroups
OscGroups set OSC send port to: 22244
Start sending, addr: a NetAddr(127.0.0.1, 22244), message 'code', user 'localuser'
WARNING: Extension in '/Users/iani/Library/Application Support/SuperCollider/Extensions/sc-hacks-redux/Classes/OperatorsAndShortcuts/UGenShortcuts.sc' overwrites UGen:lag in main class library.
Intentional overwrites must be put in a 'SystemOverwrites' subfolder.


*** Welcome to SuperCollider 3.12.1. *** For help type C-c C-y.
/Users/iani/sc-projects/global/startup.scd
Selecting project: nil
Emacs: Index help topics in 0.613 seconds
Emacs: Built symbol table in 0.0135 seconds
osc groups enabled? false
polled oscgroups status now
Selecting project: AUD420_220329
-> Synth('default' : 1000)
server 'localhost' unresponsive, rebooting ...
'/quit' message sent to server 'localhost'.
Booting server 'localhost' on address 127.0.0.1:57110.
Found 0 LADSPA plugins
Number of Devices: 6
   0 : "BlackHole 2ch"
   1 : "External Microphone"
   2 : "External Headphones"
   3 : "MacBook Air Microphone"
   4 : "MacBook Air Speakers"
   5 : "ZoomAudioD"

"External Microphone" Input Device
   Streams: 1
      0  channels 1

"External Headphones" Output Device
   Streams: 1
      0  channels 2

SC_AudioDriver: sample rate = 48000.000000, driver's block size = 512
SuperCollider 3 server ready.
Requested notification messages from server 'localhost'
localhost: server process's maxLogins (1) matches with my options.
localhost: keeping clientID (0) as confirmed by server process.
Shared memory server interface initialized
loading global buffers
Looking for files in /Users/iani/sc-projects/global/audiofiles ...
... found: [ 01kiiroi.wav, 14pilgrims.wav, README-AUDIOFILES.org, bird_crickets.wav, birdcarman.wav, birdcarmanshort.wav, cricket_ff.wav, cricket_taps.wav, crickets.wav, crossing.wav, echo_crickets.wav, fones.wav, hanbaiki.wav, lake_plane.wav, loud_crickets.wav, melodic_road.wav, noisebirdsclick.wav, rough_steps.wav, sweet_crickets.wav, takunia.wav ]
Loaded buffer 01kiiroi, 1 channels, 9.871"
Loaded buffer 14pilgrims, 1 channels, 58.514"
Skipping non-matching file type: README-AUDIOFILES.org
Loaded buffer bird_crickets, 1 channels, 55.587"
Loaded buffer birdcarman, 1 channels, 2'33.076"
Loaded buffer birdcarmanshort, 1 channels, 1'10.413"
Loaded buffer cricket_ff, 1 channels, 22.206"
Loaded buffer cricket_taps, 1 channels, 12.348"
Loaded buffer crickets, 1 channels, 42.23"
Loaded buffer crossing, 1 channels, 31.888"
Loaded buffer echo_crickets, 1 channels, 1'2.277"
Loaded buffer fones, 1 channels, 3.067"
Loaded buffer hanbaiki, 1 channels, 9.039"
Loaded buffer lake_plane, 1 channels, 24.199"
Loaded buffer loud_crickets, 1 channels, 48.112"
Loaded buffer melodic_road, 1 channels, 26.477"
Loaded buffer noisebirdsclick, 1 channels, 40.773"
Loaded buffer rough_steps, 1 channels, 17.509"
Loaded buffer sweet_crickets, 1 channels, 1'2.277"
Loaded buffer takunia, 1 channels, 4.244"
loading local buffers from: PathName(/Users/iani/sc-projects/AUD420_220329/audiofiles)
Looking for files in /Users/iani/sc-projects/AUD420_220329/audiofiles ...
... found: [  ]
localhost finished loading buffers
loading global synthdefs
Looking for files in /Users/iani/sc-projects/global/synthdefs ...
... found: [  ]
loading local synthdefs
Stopped sharing code with OSCGroups
osc groups enabled? false
Looking for files in /Users/iani/sc-projects/AUD420_220329/synthdefs ...
... found: [  ]
localhost finished loading synthdefs
loading setup folder
Stopped sharing code with OSCGroups
osc groups enabled? false
Looking for files in /Users/iani/sc-projects/AUD420_220329/setup ...
... found: [  ]
-> Synth('default' : 1000)
OscGroups set OSC send port to: 22244
Start sending, addr: a NetAddr(127.0.0.1, 22244), message 'code', user 'localuser'
osc groups enabled? false
osc groups enabled? true
OscGroups enabled
osc groups enabled? true
-> Synth('default' : 1001)
Sending CmdPeriod to OscGroups
Selecting project: CFU_NPL_220528a
Remote evaluation: /* "Hello".postln;
 */
Hello
Hello
Remote evaluation: /* 100.rand;
 */
65
Remote evaluation: /* 100.rand;
 */
45
Remote evaluation: /* 100.rand;
 */
56
Remote evaluation: /* Project.selectProject('CFU_NPL_220528a')
 */
Selecting project: CFU_NPL_220528a
Project
Remote evaluation: /* Project.loadLocalSetupFolder;
 */
loading setup folder
Stopped sharing code with OSCGroups
osc groups enabled? true
Stopped sharing code with OSCGroups
osc groups enabled? true
Looking for files in /Users/iani/sc-projects/CFU_NPL_220528a/setup ...
... found: [ 00_SetupOscAndSensors.scd, OscGroupClientCommand.org ]
Loading : /Users/iani/sc-projects/CFU_NPL_220528a/setup/00_SetupOscAndSensors.scd
OscGroups set OSC send port to: 22244
Start sending, addr: a NetAddr(127.0.0.1, 22244), message 'code', user 'localuser'
osc groups enabled? true
osc groups enabled? true
OscGroups enabled
osc groups enabled? true
enabled osc groups
Enabled forwarding sense data to osc groups
Sensors 1-8 write to buses 0-23
Skipping non-matching file type: OscGroupClientCommand.org
Start sending, addr: a NetAddr(127.0.0.1, 22244), message 'code', user 'localuser'
osc groups enabled? true
Project
Preparing recording on 'localhost'
Recording channels [ 0, 1 ] ... 
path: '/Users/iani/Music/SuperCollider Recordings/SC_220528_152938.aiff'
loading setup folder
Stopped sharing code with OSCGroups
Stopped sharing code with OSCGroups
Looking for files in /Users/iani/sc-projects/CFU_NPL_220528a/setup ...
... found: [ 00_SetupOscAndSensors.scd, OscGroupClientCommand.org ]
Loading : /Users/iani/sc-projects/CFU_NPL_220528a/setup/00_SetupOscAndSensors.scd
OscGroups set OSC send port to: 22244
Start sending, addr: a NetAddr(127.0.0.1, 22244), message 'code', user 'localuser'
OscGroups enabled
enabled osc groups
Enabled forwarding sense data to osc groups
Sensors 1-8 write to buses 0-23
Skipping non-matching file type: OscGroupClientCommand.org
Start sending, addr: a NetAddr(127.0.0.1, 22244), message 'code', user 'localuser'
OscGroups set OSC send port to: 22244
Start sending, addr: a NetAddr(127.0.0.1, 22244), message 'code', user 'localuser'
OscGroups enabled

**** Broadcasting selected project CFU_NPL_220528a ****

osc groups enabled? true
osc groups enabled? true
osc groups enabled? true
osc groups enabled? true
osc groups enabled? true
osc groups enabled? true
osc groups enabled? true
osc groups enabled? true
osc groups enabled? true
WARNING: Recording already (120.0 seconds)
Remote evaluation: /* ////////// Control Bus Monitor //////////
var wd, mtr;

w = Window.availableBounds;
wd = Window("Control Bus Meter", Rect(w.width-490, w.height-240, 490, 240));
wd.alwaysOnTop = true;
wd.onClose = defer { \cbmon.stop };
wd.front;

mtr = Array.fill(24, {|i|
	a = StaticText(wd, Rect(i*20, 0, 15, 15));
	a.font = Font("Arial", 10, true);
	a.align = \center;
	a.string = i.asString;

	m = LevelIndicator(wd, Rect(i*20+5, 15, 15, 220));
	m.drawsPeak = true;
	m.numTicks = 9;
	m.numMajorTicks = 3;
});

OSCFunc({|msg|
	msg.do{|e,i|
		if(i > 2, {
			defer { mtr[i-3].value = e };
		});
	}
}, '/cbmon');

{
	// var sig = Array.fill(24, { LFNoise1.kr(4, 0.1, 0.46)});		// test
	var sig = In.kr(0, 24);
	var src = sig * \mul.kr(5) + \add.kr(-2);
	SendReply.kr(Impulse.kr(30), '/cbmon', src);
	\amp.kr(0);
} +> \cbmon;

/*
\cbmon.stop;
*/

 */
Synth('temp__1' : 1003)
-> Synth('default' : 1004)
Recording Stopped: (SC_220528_152938.aiff)
Sending CmdPeriod to OscGroups
Server 'localhost' is currently unresponsive. Forcing process to stop via system command.
====== The default server quit ======
Removing buffer entries from lib
server 'localhost' disconnected shared memory interface
'/quit' message sent to server 'localhost'.
Server 'localhost' exited with exit code 0.
Booting server 'localhost' on address 127.0.0.1:57110.
Found 0 LADSPA plugins
Number of Devices: 6
   0 : "BlackHole 2ch"
   1 : "External Microphone"
   2 : "External Headphones"
   3 : "MacBook Air Microphone"
   4 : "MacBook Air Speakers"
   5 : "ZoomAudioD"

"External Microphone" Input Device
   Streams: 1
      0  channels 1

"External Headphones" Output Device
   Streams: 1
      0  channels 2

SC_AudioDriver: sample rate = 48000.000000, driver's block size = 512
SuperCollider 3 server ready.
Requested notification messages from server 'localhost'
localhost: server process's maxLogins (1) matches with my options.
localhost: keeping clientID (0) as confirmed by server process.
Shared memory server interface initialized
loading global buffers
Looking for files in /Users/iani/sc-projects/global/audiofiles ...
... found: [ 01kiiroi.wav, 14pilgrims.wav, README-AUDIOFILES.org, bird_crickets.wav, birdcarman.wav, birdcarmanshort.wav, cricket_ff.wav, cricket_taps.wav, crickets.wav, crossing.wav, echo_crickets.wav, fones.wav, hanbaiki.wav, lake_plane.wav, loud_crickets.wav, melodic_road.wav, noisebirdsclick.wav, rough_steps.wav, sweet_crickets.wav, takunia.wav ]
Loaded buffer 01kiiroi, 1 channels, 9.871"
Loaded buffer 14pilgrims, 1 channels, 58.514"
Skipping non-matching file type: README-AUDIOFILES.org
Loaded buffer bird_crickets, 1 channels, 55.587"
Loaded buffer birdcarman, 1 channels, 2'33.076"
Loaded buffer birdcarmanshort, 1 channels, 1'10.413"
Loaded buffer cricket_ff, 1 channels, 22.206"
Loaded buffer cricket_taps, 1 channels, 12.348"
Loaded buffer crickets, 1 channels, 42.23"
Loaded buffer crossing, 1 channels, 31.888"
Loaded buffer echo_crickets, 1 channels, 1'2.277"
Loaded buffer fones, 1 channels, 3.067"
Loaded buffer hanbaiki, 1 channels, 9.039"
Loaded buffer lake_plane, 1 channels, 24.199"
Loaded buffer loud_crickets, 1 channels, 48.112"
Loaded buffer melodic_road, 1 channels, 26.477"
Loaded buffer noisebirdsclick, 1 channels, 40.773"
Loaded buffer rough_steps, 1 channels, 17.509"
Loaded buffer sweet_crickets, 1 channels, 1'2.277"
Loaded buffer takunia, 1 channels, 4.244"
loading local buffers from: PathName(/Users/iani/sc-projects/CFU_NPL_220528a/audiofiles)
Looking for files in /Users/iani/sc-projects/CFU_NPL_220528a/audiofiles ...
... found: [  ]
localhost finished loading buffers
loading global synthdefs
Stopped sharing code with OSCGroups
osc groups enabled? true
Looking for files in /Users/iani/sc-projects/global/synthdefs ...
... found: [  ]
Start sending, addr: a NetAddr(127.0.0.1, 22244), message 'code', user 'localuser'
osc groups enabled? true
loading local synthdefs
Stopped sharing code with OSCGroups
osc groups enabled? true
Stopped sharing code with OSCGroups
osc groups enabled? true
Looking for files in /Users/iani/sc-projects/CFU_NPL_220528a/synthdefs ...
... found: [  ]
Start sending, addr: a NetAddr(127.0.0.1, 22244), message 'code', user 'localuser'
osc groups enabled? true
localhost finished loading synthdefs
loading setup folder
Stopped sharing code with OSCGroups
osc groups enabled? true
Stopped sharing code with OSCGroups
osc groups enabled? true
Looking for files in /Users/iani/sc-projects/CFU_NPL_220528a/setup ...
... found: [ 00_SetupOscAndSensors.scd, OscGroupClientCommand.org ]
Loading : /Users/iani/sc-projects/CFU_NPL_220528a/setup/00_SetupOscAndSensors.scd
OscGroups set OSC send port to: 22244
Start sending, addr: a NetAddr(127.0.0.1, 22244), message 'code', user 'localuser'
osc groups enabled? true
osc groups enabled? true
OscGroups enabled
osc groups enabled? true
enabled osc groups
Enabled forwarding sense data to osc groups
Sensors 1-8 write to buses 0-23
Skipping non-matching file type: OscGroupClientCommand.org
Start sending, addr: a NetAddr(127.0.0.1, 22244), message 'code', user 'localuser'
osc groups enabled? true
Preparing recording on 'localhost'
Recording channels [ 0, 1 ] ... 
path: '/Users/iani/Music/SuperCollider Recordings/SC_220528_153925.aiff'
-> Synth('default' : 1001)
Recording Stopped: (SC_220528_153925.aiff)
Sending CmdPeriod to OscGroups
Remote evaluation: /* (
{
	z = SinOsc.ar(100);
	\amp.kr(0.5) * z;
} +> \ti;
)
 */
Synth('temp__3' : 1002)
Remote evaluation: /* \ti.stop;
 */
ti
-> Synth('default' : 1003)
Remote evaluation: /* (
{
	z = SinOsc.ar(60.midicps)!2;
	\amp.kr(0.5) * z;
} +> \ti;
)
 */
Synth('temp__4' : 1004)
Remote evaluation: /* \ti.stop;
 */
ti
Remote evaluation: /* (
{
	z = SinOsc.ar(69.midicps)!2;
	\amp.kr(0.5) * z;
} +> \ti;
)
 */
Synth('temp__5' : 1005)
Remote evaluation: /* OscGroups.remoteCmdPeriod
 */
OscGroups
Remote evaluation: /* OscGroups.remoteCmdPeriod
 */
OscGroups
Remote evaluation: /* ////////// Control Bus Monitor //////////
var wd, mtr;

w = Window.availableBounds;
wd = Window("Control Bus Meter", Rect(w.width-490, w.height-240, 490, 240));
wd.alwaysOnTop = true;
wd.onClose = defer { \cbmon.stop };
wd.front;

mtr = Array.fill(24, {|i|
	a = StaticText(wd, Rect(i*20, 0, 15, 15));
	a.font = Font("Arial", 10, true);
	a.align = \center;
	a.string = i.asString;

	m = LevelIndicator(wd, Rect(i*20+5, 15, 15, 220));
	m.drawsPeak = true;
	m.numTicks = 9;
	m.numMajorTicks = 3;
});

OSCFunc({|msg|
	msg.do{|e,i|
		if(i > 2, {
			defer { mtr[i-3].value = e };
		});
	}
}, '/cbmon');

{
	// var sig = Array.fill(24, { LFNoise1.kr(4, 0.1, 0.46)});		// test
	var sig = In.kr(0, 24);
	var src = sig * \mul.kr(5) + \add.kr(-2);
	SendReply.kr(Impulse.kr(30), '/cbmon', src);
	\amp.kr(0);
} +> \cbmon;

/*
\cbmon.stop;
*/

 */
Synth('temp__6' : 1006)
Remote evaluation: /* (
{
	z = SinOsc.ar(68.midicps)!2;
	\amp.kr(0.5) * z;
} +> \ti;
)
 */
Synth('temp__7' : 1007)
Remote evaluation: /* \ti.stop;
 */
ti
Loading selected item: PathName(/Users/iani/sc-projects/CFU_NPL_220528a/01a_NPL_Elli_ShepardSolo.scd)
loading project item: PathName(/Users/iani/sc-projects/CFU_NPL_220528a/01a_NPL_Elli_ShepardSolo.scd)
Loading selected item: PathName(/Users/iani/sc-projects/CFU_NPL_220528a/01a_CFU_Niki_GlassSolo.scd)
loading project item: PathName(/Users/iani/sc-projects/CFU_NPL_220528a/01a_CFU_Niki_GlassSolo.scd)
Loading selected item: PathName(/Users/iani/sc-projects/CFU_NPL_220528a/00a_STOP_ALL.scd)
loading project item: PathName(/Users/iani/sc-projects/CFU_NPL_220528a/00a_STOP_ALL.scd)
Loading selected item: PathName(/Users/iani/sc-projects/CFU_NPL_220528a/01b_NPL_Virginia_GlassSolo.scd)
loading project item: PathName(/Users/iani/sc-projects/CFU_NPL_220528a/01b_NPL_Virginia_GlassSolo.scd)
Loading selected item: PathName(/Users/iani/sc-projects/CFU_NPL_220528a/01b_CFU_Niki_GunSOLO.scd)
loading project item: PathName(/Users/iani/sc-projects/CFU_NPL_220528a/01b_CFU_Niki_GunSOLO.scd)
Loading selected item: PathName(/Users/iani/sc-projects/CFU_NPL_220528a/00a_STOP_ALL.scd)
loading project item: PathName(/Users/iani/sc-projects/CFU_NPL_220528a/00a_STOP_ALL.scd)
Loading selected item: PathName(/Users/iani/sc-projects/CFU_NPL_220528a/01c_NPL_Stefania_GlassSolo.scd)
loading project item: PathName(/Users/iani/sc-projects/CFU_NPL_220528a/01c_NPL_Stefania_GlassSolo.scd)
Loading selected item: PathName(/Users/iani/sc-projects/CFU_NPL_220528a/01c_CFU_Niki_StandardL_Solo.scd)
loading project item: PathName(/Users/iani/sc-projects/CFU_NPL_220528a/01c_CFU_Niki_StandardL_Solo.scd)
Loading selected item: PathName(/Users/iani/sc-projects/CFU_NPL_220528a/00a_STOP_ALL.scd)
loading project item: PathName(/Users/iani/sc-projects/CFU_NPL_220528a/00a_STOP_ALL.scd)
Loading selected item: PathName(/Users/iani/sc-projects/CFU_NPL_220528a/00a_STOP_ALL.scd)
loading project item: PathName(/Users/iani/sc-projects/CFU_NPL_220528a/00a_STOP_ALL.scd)
Loading selected item: PathName(/Users/iani/sc-projects/CFU_NPL_220528a/02a_Handbell_3Chords_a1_CFU.scd)
loading project item: PathName(/Users/iani/sc-projects/CFU_NPL_220528a/02a_Handbell_3Chords_a1_CFU.scd)
Loading selected item: PathName(/Users/iani/sc-projects/CFU_NPL_220528a/02a_Handbell_3Chords_a2_NPL.scd)
loading project item: PathName(/Users/iani/sc-projects/CFU_NPL_220528a/02a_Handbell_3Chords_a2_NPL.scd)
Loading selected item: PathName(/Users/iani/sc-projects/CFU_NPL_220528a/02a0_STOP_ALL.scd)
loading project item: PathName(/Users/iani/sc-projects/CFU_NPL_220528a/02a0_STOP_ALL.scd)
Loading selected item: PathName(/Users/iani/sc-projects/CFU_NPL_220528a/02a_Handbell_3Chords_a2_NPL.scd)
loading project item: PathName(/Users/iani/sc-projects/CFU_NPL_220528a/02a_Handbell_3Chords_a2_NPL.scd)
Loading selected item: PathName(/Users/iani/sc-projects/CFU_NPL_220528a/11_Taiko_natali_CodeControl.scd)
loading project item: PathName(/Users/iani/sc-projects/CFU_NPL_220528a/11_Taiko_natali_CodeControl.scd)
FAILURE IN SERVER /n_set Node 1012 not found
Loading selected item: PathName(/Users/iani/sc-projects/CFU_NPL_220528a/11_Taiko_natali_CodeControl.scd)
loading project item: PathName(/Users/iani/sc-projects/CFU_NPL_220528a/11_Taiko_natali_CodeControl.scd)
FAILURE IN SERVER /n_set Node 1012 not found
Loading selected item: PathName(/Users/iani/sc-projects/CFU_NPL_220528a/00a_STOP_ALL.scd)
loading project item: PathName(/Users/iani/sc-projects/CFU_NPL_220528a/00a_STOP_ALL.scd)
Loading selected item: PathName(/Users/iani/sc-projects/CFU_NPL_220528a/02a_Handbell_3Chords_a2_NPL.scd)
loading project item: PathName(/Users/iani/sc-projects/CFU_NPL_220528a/02a_Handbell_3Chords_a2_NPL.scd)
Loading selected item: PathName(/Users/iani/sc-projects/CFU_NPL_220528a/02a_Handbell_3Chords_a1_CFU.scd)
loading project item: PathName(/Users/iani/sc-projects/CFU_NPL_220528a/02a_Handbell_3Chords_a1_CFU.scd)
Loading selected item: PathName(/Users/iani/sc-projects/CFU_NPL_220528a/00a_STOP_ALL.scd)
loading project item: PathName(/Users/iani/sc-projects/CFU_NPL_220528a/00a_STOP_ALL.scd)
Loading selected item: PathName(/Users/iani/sc-projects/CFU_NPL_220528a/02a_Handbell_3Chords_a1_CFU.scd)
loading project item: PathName(/Users/iani/sc-projects/CFU_NPL_220528a/02a_Handbell_3Chords_a1_CFU.scd)
Loading selected item: PathName(/Users/iani/sc-projects/CFU_NPL_220528a/00a_STOP_ALL.scd)
loading project item: PathName(/Users/iani/sc-projects/CFU_NPL_220528a/00a_STOP_ALL.scd)
Loading selected item: PathName(/Users/iani/sc-projects/CFU_NPL_220528a/02a_Handbell_3Chords_a2_NPL.scd)
loading project item: PathName(/Users/iani/sc-projects/CFU_NPL_220528a/02a_Handbell_3Chords_a2_NPL.scd)
Loading selected item: PathName(/Users/iani/sc-projects/CFU_NPL_220528a/02a_Handbell_3Chords_a1_CFU.scd)
loading project item: PathName(/Users/iani/sc-projects/CFU_NPL_220528a/02a_Handbell_3Chords_a1_CFU.scd)
Loading selected item: PathName(/Users/iani/sc-projects/CFU_NPL_220528a/00b_STOP_CFU_Handbells.scd)
loading project item: PathName(/Users/iani/sc-projects/CFU_NPL_220528a/00b_STOP_CFU_Handbells.scd)
Loading selected item: PathName(/Users/iani/sc-projects/CFU_NPL_220528a/02a_Handbell_3Chords_a1_CFU.scd)
loading project item: PathName(/Users/iani/sc-projects/CFU_NPL_220528a/02a_Handbell_3Chords_a1_CFU.scd)
Loading selected item: PathName(/Users/iani/sc-projects/CFU_NPL_220528a/00b_STOP_CFU_Handbells.scd)
loading project item: PathName(/Users/iani/sc-projects/CFU_NPL_220528a/00b_STOP_CFU_Handbells.scd)
Loading selected item: PathName(/Users/iani/sc-projects/CFU_NPL_220528a/02a_Handbell_3Chords_a1_CFU.scd)
loading project item: PathName(/Users/iani/sc-projects/CFU_NPL_220528a/02a_Handbell_3Chords_a1_CFU.scd)
Loading selected item: PathName(/Users/iani/sc-projects/CFU_NPL_220528a/00b_STOP_CFU_Handbells.scd)
loading project item: PathName(/Users/iani/sc-projects/CFU_NPL_220528a/00b_STOP_CFU_Handbells.scd)
Loading selected item: PathName(/Users/iani/sc-projects/CFU_NPL_220528a/02a_Handbell_3Chords_a1_CFU.scd)
loading project item: PathName(/Users/iani/sc-projects/CFU_NPL_220528a/02a_Handbell_3Chords_a1_CFU.scd)
Loading selected item: PathName(/Users/iani/sc-projects/CFU_NPL_220528a/00b_STOP_CFU_Handbells.scd)
loading project item: PathName(/Users/iani/sc-projects/CFU_NPL_220528a/00b_STOP_CFU_Handbells.scd)
Loading selected item: PathName(/Users/iani/sc-projects/CFU_NPL_220528a/00a_STOP_ALL.scd)
loading project item: PathName(/Users/iani/sc-projects/CFU_NPL_220528a/00a_STOP_ALL.scd)
Remote evaluation: /* (
{
	var sensor = \x7;
	// var sensor = \x8;

	var range = \range.kr(24);

	var frq = Slope.kr(
		sensor.bamp(0.1, 0.5).linlin(0.46, 0.56, 0, 1).lag(2)
		// MouseX.kr(0, 1).lag(1)
	).abs.max(0.01).min(1);

	var pch =
	sensor.bamp(0.1, 0.5).linlin(0.46, 0.56, 0, range).lag(2);
	// MouseX.kr(0, range).lag(1);

	a = (pch + 0.00).round; a = \itvA.kr(2**(4/18))**a;
	b = (pch + 0.50).round; b = \itvB.kr(2**(1/18))**b;
	x = \root.kr(24).midicps*a*b;

	c = Impulse.kr(frq * \mul.kr(12));
	d = Array.fill(7, {|n|
		e = PulseDivider.kr(c, 7, n*3%7);
		f = EnvGen.ar(Env.perc(0.01, 0.7), e);
		g = Latch.kr(x, e);
		PMOsc.ar(g, 3.5*g, f*3, 0, f);
	});
	z = Splay.ar(d);

	\amp.kr(0.6).lag(1) * z;
} +> \tiBell;
)
 */
Synth('temp__58' : 1058)
Loading selected item: PathName(/Users/iani/sc-projects/CFU_NPL_220528a/00b_STOP_CFU_Handbells.scd)
loading project item: PathName(/Users/iani/sc-projects/CFU_NPL_220528a/00b_STOP_CFU_Handbells.scd)
Remote evaluation: /* (
{
	var sensor = \x8;
	// var sensor = \x7;

	var frq = Slope.kr(
		sensor.bamp(0.1, 0.5).linlin(0.46, 0.56, 0, 1).lag(2)
		// MouseY.kr(0, 1).lag(1)
	).abs.max(0.01).min(1);

	a = Impulse.ar(frq * \mul.kr(10));
	a = EnvGen.ar(Env.perc(0, 0.5), a);
	a = SinOsc.ar(a**30*3000+60, 0, a/2);
	a = HPF.ar(a, 50);
	b = (\root.kr(48) + [0, 5, 10]).midicps.reciprocal;
	c = CombN.ar(a, 0.1, b, 0.7, 0.5);
	a = Splay.ar(c) + a;

	\amp.kr(0.8).lag(1) * a;
} +> \tiKick;
)
 */
Synth('temp__59' : 1059)
Loading selected item: PathName(/Users/iani/sc-projects/CFU_NPL_220528a/00b_STOP_CFU_Handbells.scd)
loading project item: PathName(/Users/iani/sc-projects/CFU_NPL_220528a/00b_STOP_CFU_Handbells.scd)
Loading selected item: PathName(/Users/iani/sc-projects/CFU_NPL_220528a/02a_Handbell_3Chords_a1_CFU.scd)
loading project item: PathName(/Users/iani/sc-projects/CFU_NPL_220528a/02a_Handbell_3Chords_a1_CFU.scd)
Loading selected item: PathName(/Users/iani/sc-projects/CFU_NPL_220528a/00b_STOP_CFU_Handbells.scd)
loading project item: PathName(/Users/iani/sc-projects/CFU_NPL_220528a/00b_STOP_CFU_Handbells.scd)
Remote evaluation: /* (
\tiBell.stop(5);
\tiKick.stop(5);
)
 */
tiKick
Loading selected item: PathName(/Users/iani/sc-projects/CFU_NPL_220528a/01c_CFU_Niki_StandardL_Solo.scd)
loading project item: PathName(/Users/iani/sc-projects/CFU_NPL_220528a/01c_CFU_Niki_StandardL_Solo.scd)
Loading selected item: PathName(/Users/iani/sc-projects/CFU_NPL_220528a/01b_NPL_Virginia_GlassSolo.scd)
loading project item: PathName(/Users/iani/sc-projects/CFU_NPL_220528a/01b_NPL_Virginia_GlassSolo.scd)
Remote evaluation: /* (
{
	var sensor = \x7;
	// var sensor = \x8;

	var range = \range.kr(24);

	var frq = Slope.kr(
		sensor.bamp(0.1, 0.5).linlin(0.46, 0.56, 0, 1).lag(2)
		// MouseX.kr(0, 1).lag(1)
	).abs.max(0.01).min(1);

	var pch =
	sensor.bamp(0.1, 0.5).linlin(0.46, 0.56, 0, range).lag(2);
	// MouseX.kr(0, range).lag(1);

	a = (pch + 0.00).round; a = \itvA.kr(2**(4/18))**a;
	b = (pch + 0.50).round; b = \itvB.kr(2**(1/18))**b;
	x = \root.kr(24).midicps*a*b;

	c = Impulse.kr(frq * \mul.kr(12));
	d = Array.fill(7, {|n|
		e = PulseDivider.kr(c, 7, n*3%7);
		f = EnvGen.ar(Env.perc(0.01, 0.7), e);
		g = Latch.kr(x, e);
		PMOsc.ar(g, 3.5*g, f*3, 0, f);
	});
	z = Splay.ar(d);

	\amp.kr(0.6).lag(1) * z;
} +> \tiBell;
)
 */
Synth('temp__66' : 1066)
Remote evaluation: /* (
{
	var sensor = \x8;
	// var sensor = \x7;

	var frq = Slope.kr(
		sensor.bamp(0.1, 0.5).linlin(0.46, 0.56, 0, 1).lag(2)
		// MouseY.kr(0, 1).lag(1)
	).abs.max(0.01).min(1);

	a = Impulse.ar(frq * \mul.kr(10));
	a = EnvGen.ar(Env.perc(0, 0.5), a);
	a = SinOsc.ar(a**30*3000+60, 0, a/2);
	a = HPF.ar(a, 50);
	b = (\root.kr(48) + [0, 5, 10]).midicps.reciprocal;
	c = CombN.ar(a, 0.1, b, 0.7, 0.5);
	a = Splay.ar(c) + a;

	\amp.kr(0.8).lag(1) * a;
} +> \tiKick;
)
 */
Synth('temp__67' : 1067)
Remote evaluation: /* (
{
	var sensor = \x8;
	// var sensor = \x7;

	var frq = Slope.kr(
		sensor.bamp(0.1, 0.5).linlin(0.46, 0.56, 0, 1).lag(2)
		// MouseY.kr(0, 1).lag(1)
	).abs.max(0.01).min(1);

	a = Impulse.ar(frq * \mul.kr(10));
	a = EnvGen.ar(Env.perc(0, 0.5), a);
	a = SinOsc.ar(a**30*3000+60, 0, a/2);
	a = HPF.ar(a, 50);
	b = (\root.kr(47) + [0, 5, 10]).midicps.reciprocal;
	c = CombN.ar(a, 0.1, b, 0.7, 0.5);
	a = Splay.ar(c) + a;

	\amp.kr(0.8).lag(1) * a;
} +> \tiKick;
)
 */
Synth('temp__68' : 1068)
Remote evaluation: /* (
{
	var sensor = \x8;
	// var sensor = \x7;

	var frq = Slope.kr(
		sensor.bamp(0.1, 0.5).linlin(0.46, 0.56, 0, 1).lag(2)
		// MouseY.kr(0, 1).lag(1)
	).abs.max(0.01).min(1);

	a = Impulse.ar(frq * \mul.kr(10));
	a = EnvGen.ar(Env.perc(0, 0.5), a);
	a = SinOsc.ar(a**30*3000+60, 0, a/2);
	a = HPF.ar(a, 50);
	b = (\root.kr(46.5) + [0, 5, 10]).midicps.reciprocal;
	c = CombN.ar(a, 0.1, b, 0.7, 0.5);
	a = Splay.ar(c) + a;

	\amp.kr(0.8).lag(1) * a;
} +> \tiKick;
)
 */
Synth('temp__69' : 1069)
Remote evaluation: /* \mul <+. tiKick 12;
 */
mul
Remote evaluation: /* (
{
	var sensor = \x7;
	// var sensor = \x8;

	var range = \range.kr(24);

	var frq = Slope.kr(
		sensor.bamp(0.1, 0.5).linlin(0.46, 0.56, 0, 1).lag(2)
		// MouseX.kr(0, 1).lag(1)
	).abs.max(0.01).min(1);

	var pch =
	sensor.bamp(0.1, 0.5).linlin(0.46, 0.56, 0, range).lag(2);
	// MouseX.kr(0, range).lag(1);

	a = (pch + 0.00).round; a = \itvA.kr(2**(4/18))**a;
	b = (pch + 0.50).round; b = \itvB.kr(2**(1/18))**b;
	x = \root.kr(24).midicps*a*b;

	c = Impulse.kr(frq * \mul.kr(15));
	d = Array.fill(7, {|n|
		e = PulseDivider.kr(c, 7, n*3%7);
		f = EnvGen.ar(Env.perc(0.01, 0.7), e);
		g = Latch.kr(x, e);
		PMOsc.ar(g, 3.5*g, f*3, 0, f);
	});
	z = Splay.ar(d);

	\amp.kr(0.6).lag(1) * z;
} +> \tiBell;
)
 */
Synth('temp__70' : 1070)
Remote evaluation: /* (
{
	var sensor = \x8;
	// var sensor = \x7;

	var frq = Slope.kr(
		sensor.bamp(0.1, 0.5).linlin(0.46, 0.56, 0, 1).lag(2)
		// MouseY.kr(0, 1).lag(1)
	).abs.max(0.01).min(1);

	a = Impulse.ar(frq * \mul.kr(10));
	a = EnvGen.ar(Env.perc(0, 0.5), a);
	a = SinOsc.ar(a**30*3000+60, 0, a/2);
	a = HPF.ar(a, 50);
	b = (\root.kr(46) + [0, 5, 10]).midicps.reciprocal;
	c = CombN.ar(a, 0.1, b, 0.7, 0.5);
	a = Splay.ar(c) + a;

	\amp.kr(0.8).lag(1) * a;
} +> \tiKick;
)
 */
Synth('temp__71' : 1071)
Loading selected item: PathName(/Users/iani/sc-projects/CFU_NPL_220528a/00a_STOP_ALL.scd)
loading project item: PathName(/Users/iani/sc-projects/CFU_NPL_220528a/00a_STOP_ALL.scd)
Remote evaluation: /* \mul <+. tiKick 8;
 */
mul
Remote evaluation: /* (
{
	var sensor = \x7;
	// var sensor = \x8;

	var range = \range.kr(24);

	var frq = Slope.kr(
		sensor.bamp(0.1, 0.5).linlin(0.46, 0.56, 0, 1).lag(2)
		// MouseX.kr(0, 1).lag(1)
	).abs.max(0.01).min(1);

	var pch =
	sensor.bamp(0.1, 0.5).linlin(0.46, 0.56, 0, range).lag(2);
	// MouseX.kr(0, range).lag(1);

	a = (pch + 0.00).round; a = \itvA.kr(2**(4/18))**a;
	b = (pch + 0.50).round; b = \itvB.kr(2**(1/18))**b;
	x = \root.kr(24).midicps*a*b;

	c = Impulse.kr(frq * \mul.kr(15));
	d = Array.fill(7, {|n|
		e = PulseDivider.kr(c, 7, n*3%7);
		f = EnvGen.ar(Env.perc(0.01, 0.7), e);
		g = Latch.kr(x, e);
		PMOsc.ar(g, 3.5*g, f*3, 0, f);
	});
	z = Splay.ar(d);
	z = CombN.ar(z, 0.1, 0.1, 1);

	\amp.kr(0.6).lag(1) * z;
} +> \tiBell;
)
 */
Synth('temp__72' : 1072)
Remote evaluation: /* (
\tiBell.stop(5);
\tiKick.stop(5);
)
 */
tiKick
Loading selected item: PathName(/Users/iani/sc-projects/CFU_NPL_220528a/02a_Handbell_3Chords_a2_NPL.scd)
loading project item: PathName(/Users/iani/sc-projects/CFU_NPL_220528a/02a_Handbell_3Chords_a2_NPL.scd)
Remote evaluation: /* (
/*{
	a = EnvGen.ar(Env.sine(5), doneAction:2);
	a = LFNoise0.ar(1000, a/10);
	\amp.kr(1) * a!2;
} +> \tiSig;*/

{
	var lh = \z1; var rh = \x2;
	// var lh = \x3; var rh = \x4;

	var range = \range.kr(4);

	var pch =
	lh.bamp(0.1, 0.5).linlin(0.46, 0.56, 0, range).lag(2);
	// MouseX.kr(0, range).lag(1);

	var amp = Slope.kr(
		rh.bamp(0.1, 0.5).linlin(0.46, 0.56, 0, 1).lag(2)
		// MouseY.kr(0, 1).lag(2)
	).abs.max(0.05).min(0.5);

	a = (pch + 0.00).round; a = \itvA.kr(2**(7/19))**a;
	b = (pch + 0.33).round; b = \itvB.kr(2**(3/19))**b;
	c = (pch + 0.66).round; c = \itvC.kr(2**(1/19))**c;

	y = \root.kr(48).midicps*a*b*c;
	// y.cpsmidi.poll(Changed.kr(y));
	y = y.lag(0.05);
	z = PMOsc.ar(y, y*\mod.kr(3), \depth.kr(0.7), 0, amp);
	z = CombN.ar(z, 0.2, [0.23, 0.27], 0.5, 0.3, z);

	\amp.kr(0.2).lag(2) * z;
	// z!2 * (\z2.bamp(0.1, 0.5) < 0.51) * \amp.kr(0.5); // ON-OFF
} +> \tiSieve;
// } +> \tiSieveB;
)
 */
Synth('temp__77' : 1077)
Remote evaluation: /* (
/*{
	a = EnvGen.ar(Env.sine(5), doneAction:2);
	a = LFNoise0.ar(1000, a/10);
	\amp.kr(1) * a!2;
} +> \tiSig;*/

{
	// var lh = \z1; var rh = \x2;
	var lh = \x3; var rh = \x4;

	var range = \range.kr(4);

	var pch =
	lh.bamp(0.1, 0.5).linlin(0.46, 0.56, 0, range).lag(2);
	// MouseX.kr(0, range).lag(1);

	var amp = Slope.kr(
		rh.bamp(0.1, 0.5).linlin(0.46, 0.56, 0, 1).lag(2)
		// MouseY.kr(0, 1).lag(2)
	).abs.max(0.05).min(0.5);

	a = (pch + 0.00).round; a = \itvA.kr(2**(7/19))**a;
	b = (pch + 0.33).round; b = \itvB.kr(2**(3/19))**b;
	c = (pch + 0.66).round; c = \itvC.kr(2**(1/19))**c;

	y = \root.kr(48).midicps*a*b*c;
	// y.cpsmidi.poll(Changed.kr(y));
	y = y.lag(0.05);
	z = PMOsc.ar(y, y*\mod.kr(3), \depth.kr(0.7), 0, amp);
	z = CombN.ar(z, 0.2, [0.23, 0.27], 0.5, 0.3, z);

	\amp.kr(0.2).lag(2) * z;
	// z!2 * (\z2.bamp(0.1, 0.5) < 0.51) * \amp.kr(0.5); // ON-OFF
// } +> \tiSieve;
	} +> \tiSieveB;
)
 */
Synth('temp__78' : 1078)
Remote evaluation: /* \amp <+.tiSieve 0.1;
\amp <+.tiSieveB 0.1;

 */
amp
Remote evaluation: /* \amp <+.tiSieve 0.2;
 */
amp
Remote evaluation: /* \amp <+.tiSieveB 0.2;
 */
amp
Remote evaluation: /* 
\amp <+.tiSieve 0.3;
\amp <+.tiSieveB 0.3;
 */
amp
Remote evaluation: /* \range <+.tiSieve 20;
\range <+.tiSieveB 20;
 */
range
Remote evaluation: /* \root <+.tiSieve 24;
\root <+.tiSieve 24;
 */
root
Remote evaluation: /* \mod <+.tiSieve 0.02;
\depth <+.tiSieve 50;
 */
depth
Remote evaluation: /* \mod <+.tiSieveB 0.02;
\depth <+.tiSieveB 50;

 */
depth
Remote evaluation: /* \tiSieve.stop(10);
\tiSieveB.stop(10);
 */
tiSieveB
Sending CmdPeriod to OscGroups
loading setup folder
Stopped sharing code with OSCGroups
Stopped sharing code with OSCGroups
Looking for files in /Users/iani/sc-projects/CFU_NPL_220528a/setup ...
... found: [ 00_SetupOscAndSensors.scd, OscGroupClientCommand.org ]
Loading : /Users/iani/sc-projects/CFU_NPL_220528a/setup/00_SetupOscAndSensors.scd
OscGroups set OSC send port to: 22244
Start sending, addr: a NetAddr(127.0.0.1, 22244), message 'code', user 'localuser'
OscGroups enabled
enabled osc groups
Enabled forwarding sense data to osc groups
Sensors 1-8 write to buses 0-23
Skipping non-matching file type: OscGroupClientCommand.org
Start sending, addr: a NetAddr(127.0.0.1, 22244), message 'code', user 'localuser'
OscGroups set OSC send port to: 22244
Start sending, addr: a NetAddr(127.0.0.1, 22244), message 'code', user 'localuser'
OscGroups enabled

**** Broadcasting selected project CFU_NPL_220528a ****

osc groups enabled? true
osc groups enabled? true
osc groups enabled? true
osc groups enabled? true
osc groups enabled? true
osc groups enabled? true
osc groups enabled? true
osc groups enabled? true
osc groups enabled? true
Preparing recording on 'localhost'
Recording channels [ 0, 1 ] ... 
path: '/Users/iani/Music/SuperCollider Recordings/SC_220528_164016.aiff'
Loading selected item: PathName(/Users/iani/sc-projects/CFU_NPL_220528a/TI_ControlBusMonitor.scd)
loading project item: PathName(/Users/iani/sc-projects/CFU_NPL_220528a/TI_ControlBusMonitor.scd)
Remote evaluation: /* (
{
	var key = \key.kr(32).midicps;
	var amp = Slope.kr(
		\x5.bamp(0.1, 0.5).linlin(0.46, 0.56, 0, 1).lag(2)
		// MouseX.kr(0, 1).lag(2)
	).abs.max(0.2).min(1);

	z = PMOsc.ar(key, key*2.5, amp**2*4, 0, amp/2);
	z = CombN.ar(z, 0.5, [0.23, 0.27], 1, 0.2, z);

	\amp.kr(0.7).lag(1) * z;
} +> \tiBass;
)
 */
Synth('temp__81' : 1081)
Remote evaluation: /* (
{
	var key = \key.kr(36);
	var amp = Slope.kr(
		\x6.bamp(0.1, 0.5).linlin(0.46, 0.56, 0, 1).lag(1)
		// MouseX.kr(0, 1).lag(2)
	).abs.max(0.02).min(1);
	var osc = [PinkNoise.ar(amp), PinkNoise.ar(amp)];
	osc = RLPF.ar(osc,
		\z6.bamp(0.1, 0.5).linlin(0.46, 0.56, key, 132).midicps
		// MouseY.kr(key, 132).midicps
	, 0.5);
	osc = Mix.fill(10, {|n| BPF.ar(osc, midicps(n*\itv.kr(5)+key), 0.01, 10)});
	osc = CombN.ar(osc, 0.2, 0.2, 1, 1, osc);
	\amp.kr(0.7).lag(1) * osc;
} +> \tiChord;
)
 */
Synth('temp__82' : 1082)
Remote evaluation: /* (
{
	var key = \key.kr(36);
	var amp = Slope.kr(
		\x6.bamp(0.1, 0.5).linlin(0.46, 0.56, 0, 1).lag(1)
		// MouseX.kr(0, 1).lag(2)
	).abs.max(0.02).min(1);
	var osc = [PinkNoise.ar(amp), PinkNoise.ar(amp)];
	osc = RLPF.ar(osc,
		\z6.bamp(0.1, 0.5).linlin(0.46, 0.56, key, 132).midicps
		// MouseY.kr(key, 132).midicps
	, 0.5);
	osc = Mix.fill(10, {|n| BPF.ar(osc, midicps(n*\itv.kr(5)+key), 0.01, 10)});
	osc = CombN.ar(osc, 0.2, 0.2, 1, 1, osc);
	\amp.kr(0.6).lag(1) * osc;
} +> \tiChord;
)
 */
Synth('temp__83' : 1083)
Remote evaluation: /* (
{
	var pch =
	\x5.bamp(0.1, 0.5).linlin(0.46, 0.56, 0, range).lag(1);
	// MouseX.kr(-1, 1).lag(1);

	var amp = Slope.kr(
		\x5.bamp(0.1, 0.5).linlin(0.46, 0.56, 0, 1).lag(2)
		// MouseX.kr(0, 1).lag(2)
	);

	amp = amp.abs.max(0.1).min(1);

	a = PMOsc.ar(10, 10/pch, 1)+1/2;
	b = LFSaw.ar(3)*amp;
	b = HPF.ar(b, a**2*10000);
	c = GVerb.ar(b/\div.kr(100), 1, \time.kr(1));
	z = HPF.ar(c, 50, 2) + HPF.ar(c, 600, 0.5);
	z = Limiter.ar(z, -3.dbamp);

	\amp.kr(0.2).lag(1) * z;
} +> \tiGong;
)
 */
ERROR: Variable 'range' not defined.
  in interpreted text
  line 4 char 47:

  	\x5.bamp(0.1, 0.5).linlin(0.46, 0.56, 0, range).lag(1);
                                                 
  	// MouseX.kr(-1, 1).lag(1);
-----------------------------------
nil
Remote evaluation: /* (
{
	var pch =
	\x5.bamp(0.1, 0.5).linlin(0.46, 0.56, -1, 1).lag(1);
	// MouseX.kr(-1, 1).lag(1);

	var amp = Slope.kr(
		\x5.bamp(0.1, 0.5).linlin(0.46, 0.56, 0, 1).lag(2)
		// MouseX.kr(0, 1).lag(2)
	);

	amp = amp.abs.max(0.1).min(1);

	a = PMOsc.ar(10, 10/pch, 1)+1/2;
	b = LFSaw.ar(3)*amp;
	b = HPF.ar(b, a**2*10000);
	c = GVerb.ar(b/\div.kr(100), 1, \time.kr(1));
	z = HPF.ar(c, 50, 2) + HPF.ar(c, 600, 0.5);
	z = Limiter.ar(z, -3.dbamp);

	\amp.kr(0.2).lag(1) * z;
} +> \tiGong;
)
 */
Synth('temp__84' : 1084)
Remote evaluation: /* (
\tiChord.stop(5);
\tiBass.stop(5);
\amp <+. tiGong 0.8;
)
 */
amp
Remote evaluation: /* (
{
	var amp = Slope.kr(
		\x6.bamp(0.1, 0.5).linlin(0.46, 0.56, 0, 1).lag(1)
		// MouseY.kr(0, 1).lag(1)
	).abs.max(0.1).min(1);

	var pch =
	\x6.bamp(0.1, 0.5).linlin(0.46, 0.56, 0, range).lag(1);
	// MouseY.kr(0, 1).lag(1);

	a = Impulse.ar(pch*20);
	b = LFSaw.ar(1000)+1/2*72+24;
	c = Latch.ar(b.midicps, a);
	c = Lag.ar(c, 0.01);
	d = PinkNoise.ar(amp);
	d = HPF.ar(d, 50);
	e = CombN.ar(d, 0.1, 0.5/c, 2);
	e = CombN.ar(e/8, 0.1, 1/c, 2);
	e = LPF.ar(e, 150, 4, amp.lag(2) * e);
	e = Limiter.ar(e, -3.dbamp);
	z = Pan2.ar(e, SinOsc.ar(pch*100%1**2*4));

	\amp.kr(0.1).lag(1) * z;
} +> \tiSampHold;
)
 */
ERROR: Variable 'range' not defined.
  in interpreted text
  line 9 char 47:

  	\x6.bamp(0.1, 0.5).linlin(0.46, 0.56, 0, range).lag(1);
                                                 
  	// MouseY.kr(0, 1).lag(1);
-----------------------------------
nil
Remote evaluation: /* (
{
	var amp = Slope.kr(
		\x6.bamp(0.1, 0.5).linlin(0.46, 0.56, 0, 1).lag(1)
		// MouseY.kr(0, 1).lag(1)
	).abs.max(0.1).min(1);

	var pch =
	\x6.bamp(0.1, 0.5).linlin(0.46, 0.56, 0, 1).lag(1);
	// MouseY.kr(0, 1).lag(1);

	a = Impulse.ar(pch*20);
	b = LFSaw.ar(1000)+1/2*72+24;
	c = Latch.ar(b.midicps, a);
	c = Lag.ar(c, 0.01);
	d = PinkNoise.ar(amp);
	d = HPF.ar(d, 50);
	e = CombN.ar(d, 0.1, 0.5/c, 2);
	e = CombN.ar(e/8, 0.1, 1/c, 2);
	e = LPF.ar(e, 150, 4, amp.lag(2) * e);
	e = Limiter.ar(e, -3.dbamp);
	z = Pan2.ar(e, SinOsc.ar(pch*100%1**2*4));

	\amp.kr(0.1).lag(1) * z;
} +> \tiSampHold;
)
 */
Synth('temp__85' : 1085)
Remote evaluation: /* (
{
	var amp = Slope.kr(
		\x6.bamp(0.1, 0.5).linlin(0.46, 0.56, 0, 1).lag(1)
		// MouseY.kr(0, 1).lag(1)
	).abs.max(0.1).min(1);

	var pch =
	\x6.bamp(0.1, 0.5).linlin(0.46, 0.56, 0, 1).lag(1);
	// MouseY.kr(0, 1).lag(1);

	a = Impulse.ar(pch*20);
	b = LFSaw.ar(1000)+1/2*72+24;
	c = Latch.ar(b.midicps, a);
	c = Lag.ar(c, 0.01);
	d = PinkNoise.ar(amp);
	d = HPF.ar(d, 50);
	e = CombN.ar(d, 0.1, 0.5/c, 2);
	e = CombN.ar(e/8, 0.1, 1/c, 2);
	e = LPF.ar(e, 150, 4, amp.lag(2) * e);
	e = Limiter.ar(e, -3.dbamp);
	z = Pan2.ar(e, SinOsc.ar(pch*100%1**2*4));

	\amp.kr(0.3).lag(1) * z;
} +> \tiSampHold;
)
 */
Synth('temp__86' : 1086)
Remote evaluation: /* \amp <+. tiSampHold 0.4;
 */
amp
Remote evaluation: /* (
{
	var amp = Slope.kr(
		\z5.bamp(0.1, 0.5).linlin(0.46, 0.56, 0, 1).lag(1)
		// MouseX.kr(0, 1).lag(1)
	).abs.max(0.1).min(1);

	var pchA =
	\z5.bamp(0.1, 0.5).linlin(0.46, 0.56, 0, range).lag(1);
	// MouseX.kr(-1, 1).lag(1);

	var pchB =
	\z6.bamp(0.1, 0.5).linlin(0.46, 0.56, 0, range).lag(1);
	// MouseY.kr(-1, 1).lag(1);

	a = LFSaw.ar(pchA*30, 0, pchB*15000+5000);
	a = Latch.ar(a, Impulse.ar(\latch.kr(1000)));
	a = LFSaw.ar(a, 0, amp);
	a = LPF.ar(a, 100, 4, a);
	a = HPF.ar(a, 50);
	a = FreeVerb2.ar(a, a, 0.1, 0.7);

	\amp.kr(0.1).lag(1) * a;
} +> \tiSaw;
)
 */
ERROR: Variable 'range' not defined.
  in interpreted text
  line 9 char 47:

  	\z5.bamp(0.1, 0.5).linlin(0.46, 0.56, 0, range).lag(1);
                                                 
  	// MouseX.kr(-1, 1).lag(1);
-----------------------------------
ERROR: Variable 'range' not defined.
  in interpreted text
  line 13 char 47:

  	\z6.bamp(0.1, 0.5).linlin(0.46, 0.56, 0, range).lag(1);
                                                 
  	// MouseY.kr(-1, 1).lag(1);
-----------------------------------
nil
Remote evaluation: /* (
{
	var amp = Slope.kr(
		\z5.bamp(0.1, 0.5).linlin(0.46, 0.56, 0, 1).lag(1)
		// MouseX.kr(0, 1).lag(1)
	).abs.max(0.1).min(1);

	var pchA =
	\z5.bamp(0.1, 0.5).linlin(0.46, 0.56, -1 , 1).lag(1);
	// MouseX.kr(-1, 1).lag(1);

	var pchB =
	\z6.bamp(0.1, 0.5).linlin(0.46, 0.56, -1, 1).lag(1);
	// MouseY.kr(-1, 1).lag(1);

	a = LFSaw.ar(pchA*30, 0, pchB*15000+5000);
	a = Latch.ar(a, Impulse.ar(\latch.kr(1000)));
	a = LFSaw.ar(a, 0, amp);
	a = LPF.ar(a, 100, 4, a);
	a = HPF.ar(a, 50);
	a = FreeVerb2.ar(a, a, 0.1, 0.7);

	\amp.kr(0.1).lag(1) * a;
} +> \tiSaw;
)
 */
Synth('temp__87' : 1087)
Remote evaluation: /* \amp <+. tiSaw 0.25;
 */
amp
Remote evaluation: /* (
{
	var key = \key.kr(32).midicps;
	var amp = Slope.kr(
		\x8.bamp(0.1, 0.5).linlin(0.46, 0.56, 0, 1).lag(2)
		// MouseX.kr(0, 1).lag(2)
	).abs.max(0.2).min(1);

	z = PMOsc.ar(key, key*2.5, amp**2*4, 0, amp/2);
	z = CombN.ar(z, 0.5, [0.23, 0.27], 1, 0.2, z);

	\amp.kr(0.7).lag(1) * z;
} +> \tiBass;
)
 */
Synth('temp__88' : 1088)
Remote evaluation: /* (
{
	var key = \key.kr(32).midicps;
	var amp = Slope.kr(
		\x8.bamp(0.1, 0.5).linlin(0.46, 0.56, 0, 1).lag(2)
		// MouseX.kr(0, 1).lag(2)
	).abs.max(0.2).min(1);

	z = PMOsc.ar(key, key*2.5, amp**2*4, 0, amp/2);
	z = CombN.ar(z, 0.5, [0.23, 0.27], 1, 0.2, z);

	\amp.kr(0.9).lag(1) * z;
} +> \tiBass;
)
 */
Synth('temp__89' : 1089)
Remote evaluation: /* (
{
	var key = \key.kr(36);
	var amp = Slope.kr(
		\x7.bamp(0.1, 0.5).linlin(0.46, 0.56, 0, 1).lag(1)
		// MouseX.kr(0, 1).lag(2)
	).abs.max(0.02).min(1);
	var osc = [PinkNoise.ar(amp), PinkNoise.ar(amp)];
	osc = RLPF.ar(osc,
		\z7.bamp(0.1, 0.5).linlin(0.46, 0.56, key, 132).midicps
		// MouseY.kr(key, 132).midicps
	, 0.5);
	osc = Mix.fill(10, {|n| BPF.ar(osc, midicps(n*\itv.kr(5)+key), 0.01, 10)});
	osc = CombN.ar(osc, 0.2, 0.2, 1, 1, osc);
	\amp.kr(0.6).lag(1) * osc;
} +> \tiChord;
)
 */
Synth('temp__90' : 1090)
Remote evaluation: /* (
{
	var pch =
	\x5.bamp(0.1, 0.5).linlin(0.46, 0.56, -1, 1).lag(1);
	// MouseX.kr(-1, 1).lag(1);

	var amp = Slope.kr(
		\x5.bamp(0.1, 0.5).linlin(0.46, 0.56, 0, 1).lag(2)
		// MouseX.kr(0, 1).lag(2)
	);

	amp = amp.abs.max(0.1).min(1);

	a = PMOsc.ar(10, 10/pch, 1)+1/2;
	b = LFSaw.ar(3)*amp;
	b = HPF.ar(b, a**2*10000);
	c = GVerb.ar(b/\div.kr(100), 1.5, \time.kr(1));
	z = HPF.ar(c, 50, 2) + HPF.ar(c, 600, 0.5);
	z = Limiter.ar(z, -3.dbamp);

	\amp.kr(0.2).lag(1) * z;
} +> \tiGong;
)
 */
Synth('temp__91' : 1091)
Remote evaluation: /* (
\tiChord.stop(5);
\tiBass.stop(5);
\amp <+. tiGong 0.8;
)
 */
amp
Remote evaluation: /* (
{
	var key = \key.kr(36);
	var amp = Slope.kr(
		\x7.bamp(0.1, 0.5).linlin(0.46, 0.56, 0, 1).lag(1)
		// MouseX.kr(0, 1).lag(2)
	).abs.max(0.02).min(1);
	var osc = [PinkNoise.ar(amp), PinkNoise.ar(amp)];
	osc = RLPF.ar(osc,
		\z7.bamp(0.1, 0.5).linlin(0.46, 0.56, key, 132).midicps
		// MouseY.kr(key, 132).midicps
	, 0.5);
	osc = Mix.fill(10, {|n| BPF.ar(osc, midicps(n*\itv.kr(5)+key), 0.01, 10)});
	osc = CombN.ar(osc, 0.2, 0.2, 1, 1, osc);
	\amp.kr(0.6).lag(1) * osc;
} +> \tiChord;
)
 */
Synth('temp__92' : 1092)
Remote evaluation: /* (
{
	var key = \key.kr(32).midicps;
	var amp = Slope.kr(
		\x8.bamp(0.1, 0.5).linlin(0.46, 0.56, 0, 1).lag(2)
		// MouseX.kr(0, 1).lag(2)
	).abs.max(0.2).min(1);

	z = PMOsc.ar(key, key*2.5, amp**2*4, 0, amp/2);
	z = CombN.ar(z, 0.5, [0.23, 0.27], 1, 0.2, z);

	\amp.kr(0.9).lag(1) * z;
} +> \tiBass;
)
 */
Synth('temp__93' : 1093)
Remote evaluation: /* \amp <+. tiSaw 0.2;
 */
amp
Remote evaluation: /* \amp <+. tiSampHold 0.7;
 */
amp
Remote evaluation: /* (
{
	var key = \key.kr(38);
	var amp = Slope.kr(
		\x7.bamp(0.1, 0.5).linlin(0.46, 0.56, 0, 1).lag(1)
		// MouseX.kr(0, 1).lag(2)
	).abs.max(0.02).min(1);
	var osc = [PinkNoise.ar(amp), PinkNoise.ar(amp)];
	osc = RLPF.ar(osc,
		\z7.bamp(0.1, 0.5).linlin(0.46, 0.56, key, 132).midicps
		// MouseY.kr(key, 132).midicps
	, 0.5);
	osc = Mix.fill(10, {|n| BPF.ar(osc, midicps(n*\itv.kr(5)+key), 0.01, 10)});
	osc = CombN.ar(osc, 0.2, 0.2, 1, 1, osc);
	\amp.kr(0.6).lag(1) * osc;
} +> \tiChord;
)
 */
Synth('temp__94' : 1094)
Remote evaluation: /* (
{
	var key = \key.kr(33);
	var amp = Slope.kr(
		\x7.bamp(0.1, 0.5).linlin(0.46, 0.56, 0, 1).lag(1)
		// MouseX.kr(0, 1).lag(2)
	).abs.max(0.02).min(1);
	var osc = [PinkNoise.ar(amp), PinkNoise.ar(amp)];
	osc = RLPF.ar(osc,
		\z7.bamp(0.1, 0.5).linlin(0.46, 0.56, key, 132).midicps
		// MouseY.kr(key, 132).midicps
	, 0.5);
	osc = Mix.fill(10, {|n| BPF.ar(osc, midicps(n*\itv.kr(5)+key), 0.01, 10)});
	osc = CombN.ar(osc, 0.2, 0.2, 1, 1, osc);
	\amp.kr(0.6).lag(1) * osc;
} +> \tiChord;
)
 */
Synth('temp__95' : 1095)
Remote evaluation: /* \tiChord.stop(5);
\tiBass.stop(5);
 */
tiBass
Remote evaluation: /* (
\tiGong.stop(5);
\tiSampHold.stop(5);
\tiSaw.stop(5);
)
 */
tiSaw
Recording Stopped: (SC_220528_164016.aiff)
-> localhost
Remote evaluation: /* OscGroups.remoteCmdPeriod
 */
OscGroups
Remote evaluation: /* (
{
	a = SinOsc.ar(100, 0, SinOsc.ar(1)**2);
	\amp.kr(0.2) * a!2;
} +> \ti;
)
 */
Synth('temp__96' : 1096)
Remote evaluation: /* \ti.stop;
 */
ti
WARNING: Not Recording
-> localhost
