compiling class library...
	Found 855 primitives.
	Compiling directory '/Applications/SuperCollider/SuperCollider.app/Contents/Resources/SCClassLibrary'
	Compiling directory '/Users/iani/Library/Application Support/SuperCollider/Extensions'
	numentries = 1509567 / 22593636 = 0.067
	6297 method selectors, 3588 classes
	method table size 24170344 bytes, big table size 180749088
	Number of Symbols 16086
	Byte Code Size 468834
	compiled 700 files in 1.14 seconds

Info: 5 methods are currently overwritten by extensions. To see which, execute:
MethodOverride.printAll

compile done
localhost : setting clientID to 0.
internal : setting clientID to 0.
Emacs: Initializing lisp interface.
Class tree inited in 0.01 seconds
Stopped sharing code with OSCGroups
OscGroups set OSC send port to: 22244
Start sending, addr: a NetAddr(127.0.0.1, 22244), message 'code', user 'localuser'
WARNING: Extension in '/Users/iani/Library/Application Support/SuperCollider/Extensions/sc-hacks-redux/Classes/OperatorsAndShortcuts/UGenShortcuts.sc' overwrites UGen:lag in main class library.
Intentional overwrites must be put in a 'SystemOverwrites' subfolder.


*** Welcome to SuperCollider 3.12.1. *** For help type C-c C-y.
/Users/iani/sc-projects/global/startup.scd
Selecting project: nil
Emacs: Index help topics in 0.624 seconds
Emacs: Built symbol table in 0.0147 seconds
osc groups enabled? false
polled oscgroups status now
Selecting project: AUD420_220329
Selecting project: CFU_NPL_220519a
-> Project
Selecting project: nil
Selecting project: AUD420_220329
osc groups enabled? false
polled oscgroups status now
Selecting project: CFU_NPL_220526a
loading setup folder
Stopped sharing code with OSCGroups
Looking for files in /Users/iani/sc-projects/CFU_NPL_220526a/setup ...
... found: [ 00_SetupOscAndSensors.scd, OscGroupClientCommand.org ]
Loading : /Users/iani/sc-projects/CFU_NPL_220526a/setup/00_SetupOscAndSensors.scd
OscGroups set OSC send port to: 22244
Start sending, addr: a NetAddr(127.0.0.1, 22244), message 'code', user 'localuser'
OscGroups enabled
enabled osc groups
Enabled forwarding sense data to osc groups
Sensors 1-8 write to buses 0-23
server 'localhost' unresponsive, rebooting ...
'/quit' message sent to server 'localhost'.
Skipping non-matching file type: OscGroupClientCommand.org
Start sending, addr: a NetAddr(127.0.0.1, 22244), message 'code', user 'localuser'
OscGroups set OSC send port to: 22244
Start sending, addr: a NetAddr(127.0.0.1, 22244), message 'code', user 'localuser'
OscGroups enabled

**** Broadcasting selected project CFU_NPL_220526a ****

osc groups enabled? true
osc groups enabled? true
osc groups enabled? true
osc groups enabled? true
osc groups enabled? true
osc groups enabled? true
osc groups enabled? true
osc groups enabled? true
Booting server 'localhost' on address 127.0.0.1:57110.
Found 0 LADSPA plugins
Number of Devices: 4
   0 : "BlackHole 2ch"
   1 : "MacBook Air Microphone"
   2 : "MacBook Air Speakers"
   3 : "ZoomAudioD"

"MacBook Air Microphone" Input Device
   Streams: 1
      0  channels 1

"MacBook Air Speakers" Output Device
   Streams: 1
      0  channels 2

SC_AudioDriver: sample rate = 48000.000000, driver's block size = 512
SuperCollider 3 server ready.
Requested notification messages from server 'localhost'
localhost: server process's maxLogins (1) matches with my options.
localhost: keeping clientID (0) as confirmed by server process.
Shared memory server interface initialized
Preparing recording on 'localhost'
Recording channels [ 0, 1 ] ... 
path: '/Users/iani/Music/SuperCollider Recordings/SC_220526_125613.aiff'
loading global buffers
Looking for files in /Users/iani/sc-projects/global/audiofiles ...
... found: [ 01kiiroi.wav, 14pilgrims.wav, README-AUDIOFILES.org, bird_crickets.wav, birdcarman.wav, birdcarmanshort.wav, cricket_ff.wav, cricket_taps.wav, crickets.wav, crossing.wav, echo_crickets.wav, fones.wav, hanbaiki.wav, lake_plane.wav, loud_crickets.wav, melodic_road.wav, noisebirdsclick.wav, rough_steps.wav, sweet_crickets.wav, takunia.wav ]
Loaded buffer 01kiiroi, 1 channels, 9.871"
Loaded buffer 14pilgrims, 1 channels, 58.514"
Skipping non-matching file type: README-AUDIOFILES.org
Loaded buffer bird_crickets, 1 channels, 55.587"
Loaded buffer birdcarman, 1 channels, 2'33.076"
Loaded buffer birdcarmanshort, 1 channels, 1'10.413"
Loaded buffer cricket_ff, 1 channels, 22.206"
Loaded buffer cricket_taps, 1 channels, 12.348"
Loaded buffer crickets, 1 channels, 42.23"
Loaded buffer crossing, 1 channels, 31.888"
Loaded buffer echo_crickets, 1 channels, 1'2.277"
Loaded buffer fones, 1 channels, 3.067"
Loaded buffer hanbaiki, 1 channels, 9.039"
Loaded buffer lake_plane, 1 channels, 24.199"
Loaded buffer loud_crickets, 1 channels, 48.112"
Loaded buffer melodic_road, 1 channels, 26.477"
Loaded buffer noisebirdsclick, 1 channels, 40.773"
Loaded buffer rough_steps, 1 channels, 17.509"
Loaded buffer sweet_crickets, 1 channels, 1'2.277"
Loaded buffer takunia, 1 channels, 4.244"
loading local buffers from: PathName(/Users/iani/sc-projects/CFU_NPL_220526a/audiofiles)
Looking for files in /Users/iani/sc-projects/CFU_NPL_220526a/audiofiles ...
... found: [  ]
localhost finished loading buffers
loading global synthdefs
Stopped sharing code with OSCGroups
osc groups enabled? true
Looking for files in /Users/iani/sc-projects/global/synthdefs ...
... found: [  ]
Start sending, addr: a NetAddr(127.0.0.1, 22244), message 'code', user 'localuser'
osc groups enabled? true
loading local synthdefs
Stopped sharing code with OSCGroups
osc groups enabled? true
Stopped sharing code with OSCGroups
osc groups enabled? true
Looking for files in /Users/iani/sc-projects/CFU_NPL_220526a/synthdefs ...
... found: [  ]
Start sending, addr: a NetAddr(127.0.0.1, 22244), message 'code', user 'localuser'
osc groups enabled? true
localhost finished loading synthdefs
loading setup folder
Stopped sharing code with OSCGroups
osc groups enabled? true
Stopped sharing code with OSCGroups
osc groups enabled? true
Looking for files in /Users/iani/sc-projects/CFU_NPL_220526a/setup ...
... found: [ 00_SetupOscAndSensors.scd, OscGroupClientCommand.org ]
Loading : /Users/iani/sc-projects/CFU_NPL_220526a/setup/00_SetupOscAndSensors.scd
OscGroups set OSC send port to: 22244
Start sending, addr: a NetAddr(127.0.0.1, 22244), message 'code', user 'localuser'
osc groups enabled? true
osc groups enabled? true
OscGroups enabled
osc groups enabled? true
enabled osc groups
Enabled forwarding sense data to osc groups
Sensors 1-8 write to buses 0-23
Skipping non-matching file type: OscGroupClientCommand.org
Start sending, addr: a NetAddr(127.0.0.1, 22244), message 'code', user 'localuser'
osc groups enabled? true
WARNING: Recording already (0.0 seconds)
loading project item: PathName(/Users/iani/sc-projects/CFU_NPL_220526a/TI_ControlBusMonitor.scd)
Remote evaluation: /* Project.selectProject('CFU_NPL_220526a')
 */
Selecting project: CFU_NPL_220526a
Project
Remote evaluation: /* Project.loadLocalSetupFolder;
 */
loading setup folder
Stopped sharing code with OSCGroups
osc groups enabled? true
Stopped sharing code with OSCGroups
osc groups enabled? true
Looking for files in /Users/iani/sc-projects/CFU_NPL_220526a/setup ...
... found: [ 00_SetupOscAndSensors.scd, OscGroupClientCommand.org ]
Loading : /Users/iani/sc-projects/CFU_NPL_220526a/setup/00_SetupOscAndSensors.scd
OscGroups set OSC send port to: 22244
Start sending, addr: a NetAddr(127.0.0.1, 22244), message 'code', user 'localuser'
osc groups enabled? true
osc groups enabled? true
OscGroups enabled
osc groups enabled? true
enabled osc groups
Enabled forwarding sense data to osc groups
Sensors 1-8 write to buses 0-23
Skipping non-matching file type: OscGroupClientCommand.org
Start sending, addr: a NetAddr(127.0.0.1, 22244), message 'code', user 'localuser'
osc groups enabled? true
Project
WARNING: Recording already (24.0 seconds)
Remote evaluation: /* ////////// Control Bus Monitor //////////
var wd, mtr;

w = Window.availableBounds;
wd = Window("Control Bus Meter", Rect(w.width-490, w.height-240, 490, 240));
wd.alwaysOnTop = true;
wd.onClose = defer { \cbmon.stop };
wd.front;

mtr = Array.fill(24, {|i|
	a = StaticText(wd, Rect(i*20, 0, 15, 15));
	a.font = Font("Arial", 10, true);
	a.align = \center;
	a.string = i.asString;

	m = LevelIndicator(wd, Rect(i*20+5, 15, 15, 220));
	m.drawsPeak = true;
	m.numTicks = 9;
	m.numMajorTicks = 3;
});

OSCFunc({|msg|
	msg.do{|e,i|
		if(i > 2, {
			defer { mtr[i-3].value = e };
		});
	}
}, '/cbmon');

{
	// var sig = Array.fill(24, { LFNoise1.kr(4, 0.1, 0.46)});		// test
	var sig = In.kr(0, 24);
	var src = sig * \mul.kr(5) + \add.kr(-2);
	SendReply.kr(Impulse.kr(30), '/cbmon', src);
	\amp.kr(0);
} +> \cbmon;

/*
\cbmon.stop;
*/

 */
Synth('temp__2' : 1002)
Loading selected item: PathName(/Users/iani/sc-projects/CFU_NPL_220526a/TI_ControlBusMonitor.scd)
loading project item: PathName(/Users/iani/sc-projects/CFU_NPL_220526a/TI_ControlBusMonitor.scd)
Remote evaluation: /* // { "This is project startup".postln; } ! 10;
// OscGroups.gui;
// Project.gui;
// MediatorGui();

// ================================
//: Phoenix Albatross  3 Apr 2022 22:16
// OscGroups.enable;
// Project.gui;

// Server.default waitForBoot: {
// 	OscGroups.forward;
// 	SenseData().setxyz(1, 2, 3, 4, 5, 6, 7, 8);
// 	OSCData.record('/minibee/data');
// 	Server.default.record;
// }
 */
nil
Remote evaluation: /* Project.gui
 */
Project
Selecting project: nil
Selecting project: AUD420_220329
Selecting project: AUD420_220329
Remote evaluation: /* Project.loadLocalSetupFolder;
 */
loading setup folder
Stopped sharing code with OSCGroups
osc groups enabled? true
Stopped sharing code with OSCGroups
osc groups enabled? true
Looking for files in /Users/iani/sc-projects/AUD420_220329/setup ...
... found: [  ]
Start sending, addr: a NetAddr(127.0.0.1, 22244), message 'code', user 'localuser'
osc groups enabled? true
Project
Remote evaluation: /* OscGroups.remoteCmdPeriod
 */
OscGroups
Recording Stopped: (SC_220526_125613.aiff)
Selecting project: CFU_TYO_220506
Selecting project: CFU_NPL_220526a
Loading selected item: PathName(/Users/iani/sc-projects/CFU_NPL_220526a/TI_ControlBusMonitor.scd)
loading project item: PathName(/Users/iani/sc-projects/CFU_NPL_220526a/TI_ControlBusMonitor.scd)
Loading selected item: PathName(/Users/iani/sc-projects/CFU_NPL_220526a/01a_Handbell_3Chords_a1_CFU.scd)
loading project item: PathName(/Users/iani/sc-projects/CFU_NPL_220526a/01a_Handbell_3Chords_a1_CFU.scd)
Loading selected item: PathName(/Users/iani/sc-projects/CFU_NPL_220526a/01a_Handbell_3Chords_a2_NPL.scd)
loading project item: PathName(/Users/iani/sc-projects/CFU_NPL_220526a/01a_Handbell_3Chords_a2_NPL.scd)
Loading selected item: PathName(/Users/iani/sc-projects/CFU_NPL_220526a/01d_STOP_ALL.scd)
loading project item: PathName(/Users/iani/sc-projects/CFU_NPL_220526a/01d_STOP_ALL.scd)
Loading selected item: PathName(/Users/iani/sc-projects/CFU_NPL_220526a/01a_Handbell_3Chords_a2_NPL.scd)
loading project item: PathName(/Users/iani/sc-projects/CFU_NPL_220526a/01a_Handbell_3Chords_a2_NPL.scd)
-> Synth('temp__17' : 1017)
-> Synth('temp__18' : 1018)
-> Synth('temp__19' : 1019)
-> Synth('temp__20' : 1020)
-> Synth('temp__21' : 1021)
-> Synth('temp__22' : 1022)
-> Synth('temp__23' : 1023)
-> Synth('temp__24' : 1024)
Remote evaluation: /* OscGroups.remoteCmdPeriod
 */
OscGroups
-> Synth('temp__25' : 1025)
-> Synth('temp__26' : 1026)
-> Synth('temp__27' : 1027)
-> Synth('temp__28' : 1028)
-> Synth('temp__29' : 1029)
-> Synth('temp__30' : 1030)
-> Synth('temp__31' : 1031)
-> Synth('temp__32' : 1032)
-> Synth('temp__33' : 1033)
-> Synth('temp__34' : 1034)
-> Synth('temp__35' : 1035)
-> Synth('temp__36' : 1036)
-> Synth('temp__37' : 1037)
-> Synth('temp__38' : 1038)
-> Synth('temp__39' : 1039)
-> Synth('temp__40' : 1040)
-> Synth('temp__41' : 1041)
-> Synth('temp__42' : 1042)
-> Synth('temp__43' : 1043)
-> Synth('temp__44' : 1044)
Remote evaluation: /* (
{
	a = EnvGen.ar(Env.sine(5), doneAction:2);
	a = LFNoise0.ar(1000, a/10);
	\amp.kr(1) * a!2;
} +> \tiSig;
  
{
	var lh = \z1; var rh = \x2;
	// var lh = \x3; var rh = \x4;
	
	var range = \range.kr(12);
	
	var pch = 
	lh.bamp(0.1, 0.5).linlin(0.46, 0.56, 0, range).lag(2);
	// MouseX.kr(0, range).lag(1);

	var amp = Slope.kr(
		rh.bamp(0.1, 0.5).linlin(0.46, 0.56, 0, 1).lag(2)
		// MouseY.kr(0, 1).lag(2)
	).abs.max(0.01).min(0.5);	

	a = (pch/1.5 + 0.00).round; a = \itvA.kr(2**(7/19))**a;
	b = (pch + 0.33).round; b = \itvB.kr(2**(3/19))**b;
	c = (pch + 0.66).round; c = \itvC.kr(2**(1/19))**c;

	y = \root.kr(24).midicps*a*b*c;
	// y.cpsmidi.poll(Changed.kr(y));
	y = y.lag(0.05);
	z = PMOsc.ar(y, y*\mod.kr(3), \depth.kr(0.2), 0, amp);
	z = CombN.ar(z, 0.2, 0.2, 0.5, 0.3, z);
	z = Pan2.ar(z, \pan.kr(0.0));

	\amp.kr(0.2).lag(5) * z;
	// z!2 * (\z2.bamp(0.1, 0.5) < 0.51) * \amp.kr(0.5); // ON-OFF	
} +> \tiSieve;
)
 */
Synth('temp__46' : 1046)
Remote evaluation: /* \amp <+.tiSieve 1;
 */
amp
Remote evaluation: /* \range <+.tiSieve 20;
 */
range
Remote evaluation: /* \amp <+.tiSieve 0.7;
 */
amp
Remote evaluation: /* \itvA <+.tiSieve (3**(1/5));
\itvB <+.tiSieve (3**(1/7));
\itvC <+.tiSieve (3**(1/11));
 */
itvC
Remote evaluation: /* \range <+.tiSieve 12;
 */
range
Remote evaluation: /* \tiSieve.stop(5);
 */
tiSieve
Remote evaluation: /* (
{
	a = EnvGen.ar(Env.sine(5), doneAction:2);
	a = LFNoise0.ar(1000, a/10);
	\amp.kr(1) * a!2;
} +> \tiSig;
  
{
	// var lh = \z1; var rh = \x2;
	var lh = \x3; var rh = \x4;
	
	var range = \range.kr(12);
	
	var pch = 
	lh.bamp(0.1, 0.5).linlin(0.46, 0.56, 0, range).lag(2);
	// MouseX.kr(0, range).lag(1);

	var amp = Slope.kr(
		rh.bamp(0.1, 0.5).linlin(0.46, 0.56, 0, 1).lag(2)
		// MouseY.kr(0, 1).lag(2)
	).abs.max(0.01).min(0.5);	

	a = (pch/1.5 + 0.00).round; a = \itvA.kr(2**(7/19))**a;
	b = (pch + 0.33).round; b = \itvB.kr(2**(3/19))**b;
	c = (pch + 0.66).round; c = \itvC.kr(2**(1/19))**c;

	y = \root.kr(24).midicps*a*b*c;
	// y.cpsmidi.poll(Changed.kr(y));
	y = y.lag(0.05);
	z = PMOsc.ar(y, y*\mod.kr(3), \depth.kr(0.2), 0, amp);
	z = CombN.ar(z, 0.2, 0.2, 0.5, 0.3, z);
	z = Pan2.ar(z, \pan.kr(0.0));

	\amp.kr(0.2).lag(5) * z;
	// z!2 * (\z2.bamp(0.1, 0.5) < 0.51) * \amp.kr(0.5); // ON-OFF	
} +> \tiSieve;
)
 */
Synth('temp__48' : 1048)
Remote evaluation: /* \amp <+.tiSieve 0.7;
 */
amp
Remote evaluation: /* \mod <+.tiSieve 0.02;
\depth <+.tiSieve 50;
 */
depth
Remote evaluation: /* \range <+.tiSieve 20;
 */
range
Remote evaluation: /* \itvA <+.tiSieve (3**(1/5));
\itvB <+.tiSieve (3**(1/7));
\itvC <+.tiSieve (3**(1/11));
 */
itvC
Remote evaluation: /* (
{
	a = EnvGen.ar(Env.sine(5), doneAction:2);
	a = LFNoise0.ar(1000, a/10);
	\amp.kr(1) * a!2;
} +> \tiSig;
  
{
	var lh = \z1; var rh = \x2;
	// var lh = \x3; var rh = \x4;
	
	var range = \range.kr(12);
	
	var pch = 
	lh.bamp(0.1, 0.5).linlin(0.46, 0.56, 0, range).lag(2);
	// MouseX.kr(0, range).lag(1);

	var amp = Slope.kr(
		rh.bamp(0.1, 0.5).linlin(0.46, 0.56, 0, 1).lag(2)
		// MouseY.kr(0, 1).lag(2)
	).abs.max(0.01).min(0.5);	

	a = (pch/1.5 + 0.00).round; a = \itvA.kr(2**(7/19))**a;
	b = (pch + 0.33).round; b = \itvB.kr(2**(3/19))**b;
	c = (pch + 0.66).round; c = \itvC.kr(2**(1/19))**c;

	y = \root.kr(24).midicps*a*b*c;
	// y.cpsmidi.poll(Changed.kr(y));
	y = y.lag(0.05);
	z = PMOsc.ar(y, y*\mod.kr(3), \depth.kr(0.2), 0, amp);
	z = CombN.ar(z, 0.2, 0.2, 0.5, 0.3, z);
	z = Pan2.ar(z, \pan.kr(0.0));

	\amp.kr(0.2).lag(5) * z;
	// z!2 * (\z2.bamp(0.1, 0.5) < 0.51) * \amp.kr(0.5); // ON-OFF	
} +> \tiSieveB;
)
 */
Synth('temp__50' : 1050)
Remote evaluation: /* \amp <+.tiSieveB 0.7;
 */
amp
Remote evaluation: /* \mod <+.tiSieveB (2**0.5);
\depth <+.tiSieveB 2;
 */
depth
Remote evaluation: /* \itvA <+.tiSieve (3**(1/5));
\itvB <+.tiSieve (3**(1/7));
\itvC <+.tiSieve (3**(1/11));
 */
itvC
Remote evaluation: /* \range <+.tiSieve 20;
 */
range
Remote evaluation: /* \range <+.tiSieve 8;
 */
range
Remote evaluation: /* \range <+.tiSieveB 8;
 */
range
Remote evaluation: /* \amp <+.tiSieve 0.4;
 */
amp
Remote evaluation: /* \amp <+.tiSieveB 0.4;
 */
amp
Remote evaluation: /* \tiSieve.stop(30);
\tiSieveB.stop(30);
 */
tiSieveB
Loading selected item: PathName(/Users/iani/sc-projects/CFU_NPL_220526a/01d_STOP_ALL.scd)
loading project item: PathName(/Users/iani/sc-projects/CFU_NPL_220526a/01d_STOP_ALL.scd)
Loading selected item: PathName(/Users/iani/sc-projects/CFU_NPL_220526a/01a_Handbell_3Chords_a1_CFU.scd)
loading project item: PathName(/Users/iani/sc-projects/CFU_NPL_220526a/01a_Handbell_3Chords_a1_CFU.scd)
Loading selected item: PathName(/Users/iani/sc-projects/CFU_NPL_220526a/01a_Handbell_3Chords_a2_NPL.scd)
loading project item: PathName(/Users/iani/sc-projects/CFU_NPL_220526a/01a_Handbell_3Chords_a2_NPL.scd)
-> Synth('temp__59' : 1059)
-> Synth('temp__60' : 1060)
-> Synth('temp__61' : 1061)
-> Synth('temp__62' : 1062)
-> Synth('temp__63' : 1063)
-> Synth('temp__64' : 1064)
-> Synth('temp__65' : 1065)
-> Synth('temp__66' : 1066)
-> Synth('temp__67' : 1067)
-> Synth('temp__68' : 1068)
-> Synth('temp__69' : 1069)
Loading selected item: PathName(/Users/iani/sc-projects/CFU_NPL_220526a/03b_NataliGlassSolo.scd)
loading project item: PathName(/Users/iani/sc-projects/CFU_NPL_220526a/03b_NataliGlassSolo.scd)
Loading selected item: PathName(/Users/iani/sc-projects/CFU_NPL_220526a/01d_STOP_ALL.scd)
loading project item: PathName(/Users/iani/sc-projects/CFU_NPL_220526a/01d_STOP_ALL.scd)
Loading selected item: PathName(/Users/iani/sc-projects/CFU_NPL_220526a/01a_Handbell_3Chords_a1_CFU.scd)
loading project item: PathName(/Users/iani/sc-projects/CFU_NPL_220526a/01a_Handbell_3Chords_a1_CFU.scd)
Loading selected item: PathName(/Users/iani/sc-projects/CFU_NPL_220526a/01a_Handbell_3Chords_a2_NPL.scd)
loading project item: PathName(/Users/iani/sc-projects/CFU_NPL_220526a/01a_Handbell_3Chords_a2_NPL.scd)
Loading selected item: PathName(/Users/iani/sc-projects/CFU_NPL_220526a/01d_STOP_ALL.scd)
loading project item: PathName(/Users/iani/sc-projects/CFU_NPL_220526a/01d_STOP_ALL.scd)
Loading selected item: PathName(/Users/iani/sc-projects/CFU_NPL_220526a/01a_Handbell_3Chords_a1_CFU.scd)
loading project item: PathName(/Users/iani/sc-projects/CFU_NPL_220526a/01a_Handbell_3Chords_a1_CFU.scd)
Loading selected item: PathName(/Users/iani/sc-projects/CFU_NPL_220526a/03b_NataliGlassSolo.scd)
loading project item: PathName(/Users/iani/sc-projects/CFU_NPL_220526a/03b_NataliGlassSolo.scd)
Remote evaluation: /* (
{
	var key = \key.kr(32).midicps;
	var amp = Slope.kr(
		\x7.bamp(0.1, 0.5).linlin(0.46, 0.56, 0, 1).lag(2)
		// MouseX.kr(0, 1).lag(2)
	).abs.max(0.05).min(1);

	z = PMOsc.ar(key, key*2.5, amp**2*2, 0, amp/3);
	z = CombN.ar(z, 0.5, [0.23, 0.27], 1, 0.2, z);

	\amp.kr(0.5).lag(1) * z;
} +> \tiBass;
)
 */
Synth('temp__84' : 1084)
Remote evaluation: /* (
{
	var pch = Slope.kr(
		\x8.bamp(0.1, 0.5).linlin(0.46, 0.56, 0, 1).lag(2)
		// MouseX.kr(0, 1).lag(2)
	).abs.max(0.01).min(1);

	a = Impulse.ar(pch*10);
	a = EnvGen.ar(Env.perc(0, 0.2), a);
	a = SinOsc.ar(a**20*8000+50, 0, a/4)!2;
	// a = CombN.ar(HPF.ar(a, 100), 0.1, 0.02, 0.2, 1, a);

	\amp.kr(0.5).lag(1) * a!2;
} +> \tiKick;
)
 */
Synth('temp__85' : 1085)
Remote evaluation: /* \tiKick.stop(5);
 */
tiKick
Remote evaluation: /* (
{
	var key = \key.kr(36);
	var amp = Slope.kr(
		\x8.bamp(0.1, 0.5).linlin(0.46, 0.56, 0, 1).lag(2)
		// MouseX.kr(0, 1).lag(2)
	).abs.max(0.02).min(1);
	var osc = [PinkNoise.ar(amp), PinkNoise.ar(amp)];
	osc = RLPF.ar(osc,
		\z8.bamp(0.1, 0.5).linlin(0.46, 0.56, key, 132).midicps
		// MouseY.kr(key, 132).midicps
	, 0.5);
	osc = Mix.fill(10, {|n| BPF.ar(osc, midicps(n*\itv.kr(5)+key), 0.01, 10)});
	osc = CombN.ar(osc, 0.2, 0.2, 1, 1, osc);
	\amp.kr(1).lag(1) * osc;
} +> \tiChord;
)
 */
Synth('temp__86' : 1086)
Remote evaluation: /* (
{
	var key = \key.kr(36);
	var amp = Slope.kr(
		\x8.bamp(0.1, 0.5).linlin(0.46, 0.56, 0, 1).lag(2)
		// MouseX.kr(0, 1).lag(2)
	).abs.max(0.02).min(1);
	var osc = [PinkNoise.ar(amp), PinkNoise.ar(amp)];
	osc = RLPF.ar(osc,
		\z8.bamp(0.1, 0.5).linlin(0.46, 0.56, key, 132).midicps
		// MouseY.kr(key, 132).midicps
	, 0.5);
	osc = Mix.fill(10, {|n| BPF.ar(osc, midicps(n*\itv.kr(5)+key), 0.01, 10)});
	osc = CombN.ar(osc, 0.2, 0.2, 1, 1, osc);
	\amp.kr(0.5).lag(1) * osc;
} +> \tiChord;
)
 */
Synth('temp__87' : 1087)
Remote evaluation: /* (
{
	var key = \key.kr(36);
	var amp = Slope.kr(
		\x8.bamp(0.1, 0.5).linlin(0.46, 0.56, 0, 1).lag(1)
		// MouseX.kr(0, 1).lag(2)
	).abs.max(0.02).min(1);
	var osc = [PinkNoise.ar(amp), PinkNoise.ar(amp)];
	osc = RLPF.ar(osc,
		\z8.bamp(0.1, 0.5).linlin(0.46, 0.56, key, 132).midicps
		// MouseY.kr(key, 132).midicps
	, 0.5);
	osc = Mix.fill(10, {|n| BPF.ar(osc, midicps(n*\itv.kr(5)+key), 0.01, 10)});
	osc = CombN.ar(osc, 0.2, 0.2, 1, 1, osc);
	\amp.kr(0.5).lag(1) * osc;
} +> \tiChord;
)
 */
Synth('temp__88' : 1088)
Remote evaluation: /* \tiChord.stop(5);
 */
tiChord
Loading selected item: PathName(/Users/iani/sc-projects/CFU_NPL_220526a/01d_STOP_ALL.scd)
loading project item: PathName(/Users/iani/sc-projects/CFU_NPL_220526a/01d_STOP_ALL.scd)
Remote evaluation: /* \tiBass.stop(5);
 */
tiBass
WARNING: Not Recording
-> localhost
SCLang Input: EOF. Will quit.
main: waiting for input thread to join...
main: quitting...
====== The default server quit ======
Removing buffer entries from lib
server 'localhost' disconnected shared memory interface
'/quit' message sent to server 'localhost'.
cleaning up OSC
